assets/icons/24px/stroke/document-code-24px.svg

<svg width="24" height="24" viewBox="0 0 24 24" fill="none" xmlns="http://www.w3.org/2000/svg">
<path fill-rule="evenodd" clip-rule="evenodd" d="M13.5908 4.06638C13.4579 4.01538 13.2989 4 12.4651 4H9C8.02893 4 7.40122 4.00212 6.93871 4.0643C6.50497 4.12262 6.36902 4.21677 6.2929 4.29289C6.21677 4.36902 6.12263 4.50496 6.06431 4.9387C6.00213 5.40121 6 6.02892 6 7V17C6 17.9711 6.00213 18.5988 6.06431 19.0613C6.12263 19.495 6.21677 19.631 6.2929 19.7071C6.36902 19.7832 6.50497 19.8774 6.93871 19.9357C7.40121 19.9979 8.02893 20 9 20H15C15.9711 20 16.5988 19.9979 17.0613 19.9357C17.495 19.8774 17.631 19.7832 17.7071 19.7071C17.7832 19.631 17.8774 19.495 17.9357 19.0613C17.9979 18.5988 18 17.9711 18 17V9.28145C18 8.31581 17.9798 8.13278 17.9135 7.98388C17.8472 7.83499 17.7246 7.69754 17.0069 7.05156L14.472 4.77012C13.8522 4.21234 13.7237 4.11737 13.5908 4.06638ZM12.5937 1.99988C13.2243 1.99897 13.7836 1.99817 14.3073 2.19914C14.831 2.4001 15.2463 2.77488 15.7144 3.19741C15.746 3.22591 15.7778 3.25463 15.8099 3.28353L18.3448 5.56498C18.3821 5.59852 18.4191 5.63174 18.4559 5.66471C18.9976 6.15061 19.4786 6.58212 19.7405 7.17021C20.0024 7.7583 20.0014 8.40451 20.0002 9.13218C20.0001 9.18156 20 9.23131 20 9.28145L20 17.0658C20.0001 17.9523 20.0001 18.7161 19.9179 19.3278C19.8297 19.9833 19.631 20.6117 19.1213 21.1213C18.6117 21.631 17.9833 21.8297 17.3278 21.9179C16.7161 22.0001 15.9523 22.0001 15.0658 22H8.9342C8.0477 22.0001 7.28388 22.0001 6.67221 21.9179C6.0167 21.8297 5.38835 21.631 4.87868 21.1213C4.36902 20.6117 4.17028 19.9833 4.08215 19.3278C3.99991 18.7161 3.99995 17.9523 4 17.0658L4 7C4 6.97798 4 6.95604 4 6.93417C3.99995 6.04768 3.99991 5.28387 4.08215 4.67221C4.17028 4.01669 4.36902 3.38834 4.87868 2.87868C5.38835 2.36902 6.0167 2.17027 6.67221 2.08214C7.28387 1.9999 8.04769 1.99995 8.93417 2C8.95604 2 8.97799 2 9 2H12.4651C12.5083 2 12.5511 1.99994 12.5937 1.99988Z" fill="white"/>
<path fill-rule="evenodd" clip-rule="evenodd" d="M12 5V3H14V5C14 5.97108 14.0021 6.59879 14.0643 7.0613C14.1226 7.49504 14.2168 7.63098 14.2929 7.70711C14.369 7.78323 14.505 7.87738 14.9387 7.93569C15.4012 7.99788 16.0289 8 17 8H19V10H17C16.978 10 16.956 10 16.9342 10C16.0477 10.0001 15.2839 10.0001 14.6722 9.91786C14.0167 9.82973 13.3883 9.63098 12.8787 9.12132C12.369 8.61166 12.1703 7.98331 12.0821 7.32779C11.9999 6.71613 12 5.95232 12 5.06583C12 5.04396 12 5.02202 12 5Z" fill="white"/>
<path fill-rule="evenodd" clip-rule="evenodd" d="M8.24999 12.5C8.24999 11.8096 8.80963 11.25 9.49999 11.25H9.99999C10.4142 11.25 10.75 11.5858 10.75 12C10.75 12.4142 10.4142 12.75 9.99999 12.75H9.74999V13.7929C9.74999 14.1244 9.61829 14.4424 9.38387 14.6768L9.06065 15L9.38387 15.3232C9.61829 15.5576 9.74999 15.8756 9.74999 16.2071V17.25H9.99999C10.4142 17.25 10.75 17.5858 10.75 18C10.75 18.4142 10.4142 18.75 9.99999 18.75H9.49999C8.80963 18.75 8.24999 18.1904 8.24999 17.5V16.3107L7.82321 15.8839C7.33505 15.3957 7.33505 14.6043 7.82321 14.1161L8.24999 13.6893V12.5ZM13.25 12C13.25 11.5858 13.5858 11.25 14 11.25H14.5C15.1903 11.25 15.75 11.8096 15.75 12.5V13.6893L16.1768 14.1161C16.6649 14.6043 16.6649 15.3957 16.1768 15.8839L15.75 16.3107V17.5C15.75 18.1904 15.1903 18.75 14.5 18.75H14C13.5858 18.75 13.25 18.4142 13.25 18C13.25 17.5858 13.5858 17.25 14 17.25H14.25V16.2071C14.25 15.8756 14.3817 15.5576 14.6161 15.3232L14.9393 15L14.6161 14.6768C14.3817 14.4424 14.25 14.1244 14.25 13.7929V12.75H14C13.5858 12.75 13.25 12.4142 13.25 12Z" fill="white"/>
</svg>

<svg width="24" height="24" fill="none" xmlns="http://www.w3.org/2000/svg"><path fill-rule="evenodd" clip-rule="evenodd" d="M13.59 4.066C13.459 4.016 13.3 4 12.466 4H9c-.971 0-1.599.002-2.061.064-.434.059-.57.153-.646.229-.076.076-.17.212-.229.646C6.002 5.4 6 6.029 6 7v10c0 .971.002 1.599.064 2.061.059.434.153.57.229.646.076.076.212.17.646.229C7.4 19.998 8.029 20 9 20h6c.971 0 1.599-.002 2.061-.064.434-.059.57-.153.646-.229.076-.076.17-.212.229-.646.062-.462.064-1.09.064-2.061V9.281c0-.965-.02-1.148-.087-1.297-.066-.149-.188-.286-.906-.932L14.472 4.77c-.62-.558-.748-.653-.881-.704zM12.595 2c.63-.001 1.19-.002 1.713.2.524.2.94.575 1.407.997l.096.087 2.535 2.281.11.1c.543.486 1.024.917 1.286 1.505.261.588.26 1.235.26 1.962l-.001.15v7.784c0 .886 0 1.65-.082 2.262-.088.655-.287 1.284-.797 1.793-.51.51-1.138.709-1.793.797-.612.082-1.376.082-2.262.082H8.934c-.886 0-1.65 0-2.262-.082-.655-.088-1.284-.287-1.793-.797-.51-.51-.709-1.138-.797-1.793C4 18.716 4 17.952 4 17.066V7v-.066c0-.886 0-1.65.082-2.262.088-.655.287-1.284.797-1.793.51-.51 1.138-.709 1.793-.797C7.284 2 8.048 2 8.934 2H12.594z" fill="#fff"/><path fill-rule="evenodd" clip-rule="evenodd" d="M12 5V3h2v2c0 .971.002 1.599.064 2.061.059.434.153.57.229.646.076.076.212.17.646.229C15.4 7.998 16.029 8 17 8h2v2h-2.066c-.886 0-1.65 0-2.262-.082-.655-.088-1.284-.287-1.793-.797-.51-.51-.709-1.138-.797-1.793C12 6.716 12 5.952 12 5.066V5zm-3.75 7.5c0-.69.56-1.25 1.25-1.25h.5a.75.75 0 0 1 0 1.5h-.25v1.043c0 .331-.132.65-.366.884L9.06 15l.323.323c.234.235.366.553.366.884v1.043H10a.75.75 0 0 1 0 1.5h-.5c-.69 0-1.25-.56-1.25-1.25v-1.19l-.427-.426a1.25 1.25 0 0 1 0-1.768l.427-.427V12.5zm5-.5a.75.75 0 0 1 .75-.75h.5c.69 0 1.25.56 1.25 1.25v1.19l.427.426a1.25 1.25 0 0 1 0 1.768l-.427.427V17.5c0 .69-.56 1.25-1.25 1.25H14a.75.75 0 0 1 0-1.5h.25v-1.043c0-.331.132-.65.366-.884L14.94 15l-.323-.323a1.25 1.25 0 0 1-.366-.884V12.75H14a.75.75 0 0 1-.75-.75z" fill="#fff"/></svg>
